public/livestock/whool.svg

<svg fill="none" height="178" viewBox="0 0 178 178" width="178" xmlns="http://www.w3.org/2000/svg" xmlns:xlink="http://www.w3.org/1999/xlink"><clipPath id="a"><path d="m26 38h126.365v102.017h-126.365z"/></clipPath><circle cx="89" cy="89" fill="#3d113c" r="89"/><g clip-path="url(#a)"><path d="m85.629 101.185-37.3614 37.356c.4672.469 1.0224.842 1.6337 1.095.6114.254 1.2669.385 1.9289.385s1.3175-.131 1.9288-.385c.6114-.253 1.1666-.626 1.6338-1.095l33.7173-33.707v-.193z" fill="#00bcb4"/><path d="m89.109 97.5473-58.8183-58.8082c-.4725-.4725-1.1132-.7379-1.7813-.7379s-1.3089.2654-1.7813.7379c-.4725.4724-.7379 1.1131-.7379 1.7813 0 .6681.2654 1.3088.7379 1.7812l58.8998 58.8844 3.4557-3.4555z" fill="#00bcb4"/><path d="m151.633 42.2904c.472-.4724.737-1.1132.737-1.7813s-.265-1.3088-.737-1.7813c-.473-.4724-1.114-.7378-1.782-.7378s-1.308.2654-1.781.7378l-58.8845 58.8998 3.5626 3.5624z" fill="#016099"/><path d="m122.99 138.541c.467.469 1.023.842 1.634 1.095.611.254 1.267.385 1.929.385s1.317-.131 1.929-.385c.611-.253 1.166-.626 1.633-1.095l-37.361-37.361-3.5626 3.563z" fill="#016099"/><g fill="#fdb98d"><path d="m88.9922 39.7202v92.6528h.0254v-92.6528z"/><path d="m64.2988 125.747c2.6443 1.596 5.4423 2.922 8.3518 3.959v-12.311z"/><path d="m94.4902 40.1326v91.8284h.056v-91.8183z"/><path d="m72.6545 61.9559v-.8194l-12.2146-12.2146c-1.5478 1.1641-3.0215 2.4237-4.4126 3.7712l12.9526 12.9373z"/><path d="m65.1121 69.4985-12.7795-12.7795c-1.2423 1.5107-2.388 3.0984-3.4303 4.7535l12.123 12.1128z"/><path d="m72.6558 42.387c-2.6136.9294-5.138 2.0928-7.5425 3.476l7.5425 7.5425z"/><path d="m57.1626 77.4483-10.9677-10.9473c-.8927 1.9117-1.6528 3.8826-2.275 5.8986l9.161 9.161z"/><path d="m72.6561 69.6868-29.0096 29.0096c.5827 2.0496 1.3071 4.0566 2.1681 6.0056l26.8415-26.8416z"/><path d="m42.4609 78.6492c-.7286 4.5218-.7869 9.1263-.173 13.665l6.9267-6.9165z"/><path d="m72.6553 85.5913-24.2256 24.2257c1.0062 1.682 2.1179 3.298 3.3285 4.84l20.8971-20.8972z"/><path d="m72.6551 101.49-17.2684 17.264c1.3628 1.367 2.8093 2.649 4.3311 3.837l12.9322-12.932z"/><path d="m100.006 95.3374v35.5296h.03v-35.4991z"/><path d="m133.766 77.5345c-.627-3.3737-1.629-6.6667-2.988-9.8175l-3.415 3.415z"/><path d="m119.412 79.082 14.52 14.5201c.41-2.4967.616-5.0226.616-7.5527l-11.054-11.0492z"/><path d="m105.502 69.361 15.777-15.7772c-1.352-1.3771-2.788-2.6689-4.3-3.868l-11.477 11.4716z"/><path d="m105.502 85.2602 22.673-22.6733c-.995-1.6916-2.096-3.3184-3.298-4.8706l-19.375 19.3703z"/><path d="m105.502 129.044c1.954-.787 3.852-1.707 5.68-2.753l-5.68-5.68z"/><path d="m105.502 92.9657v3.9901l18.495 18.4952c1.24-1.508 2.384-3.092 3.425-4.744l-19.849-19.8484z"/><path d="m112.424 46.5348c-2.206-1.354-4.521-2.5202-6.922-3.4862v10.4078z"/><path d="m105.502 112.881 10.352 10.351c1.552-1.155 3.031-2.406 4.428-3.745l-14.76-14.76z"/><path d="m111.463 87.0368 18.703 18.7032c.898-1.906 1.663-3.872 2.291-5.883l-16.912-16.907z"/><path d="m100.036 90.7265v-49.4946h-.03v49.5302z"/><path d="m100.038 95.3678v-4.6415l-.031.0305v-49.5302c-1.7984-.4712-3.6238-.8332-5.466-1.084v91.8084c1.8422-.251 3.6676-.613 5.466-1.085v-35.5287z"/></g><path d="m105.502 61.1875 11.471-11.4817c-1.451-1.1501-2.971-2.2123-4.549-3.1809l-6.922 6.9216z" fill="#fc6719"/><path d="m105.503 77.0867 19.376-19.3754c-1.12-1.4454-2.323-2.8236-3.604-4.1276l-15.777 15.7772z" fill="#fc6719"/><path d="m119.411 79.0817 4.072-4.0715 11.049 11.0491c0-2.8545-.262-5.703-.784-8.5095l-6.387-6.4178 3.415-3.415c-.759-1.7624-1.628-3.4758-2.601-5.1301l-22.673 22.6734v7.7053l2.092-2.0917 19.848 19.8491c1.015-1.607 1.929-3.274 2.739-4.993l-18.719-18.6935 4.071-4.0716 16.907 16.9071c.637-2.0481 1.13-4.1381 1.476-6.2549z" fill="#fc6719"/><path d="m105.504 104.712 14.759 14.759c1.317-1.263 2.56-2.602 3.72-4.01l-18.495-18.4952z" fill="#fc6719"/><path d="m105.502 120.611 5.68 5.68c1.617-.923 3.177-1.943 4.672-3.053l-10.352-10.352z" fill="#fc6719"/><path d="m88.21 39.71c-1.5744 0-3.13.078-4.667.2341v92.2099c1.5336.153 3.0892.231 4.667.234h.7837v-92.6679z" fill="#fffac2"/><path d="m78.0759 40.8247c-1.837.4094-3.6472.9312-5.4203 1.5625v11.0185l-7.5425-7.5425c-1.6119.9238-3.167 1.9435-4.6568 3.0537l12.2146 12.2146v.8194l-3.6745 3.6745-12.9679-12.9322c-1.3143 1.2664-2.5532 2.609-3.7102 4.0207l12.7948 12.7846-4.0715 4.0715-12.1383-12.0975c-1.0052 1.6187-1.9095 3.298-2.7075 5.0283l10.9677 10.9473-4.0716 4.0716-9.1609-9.161c-.6326 2.0534-1.1207 4.1486-1.4607 6.2702l6.7435 6.7689-6.9267 6.9165c.2907 2.1629.7346 4.3025 1.3283 6.4025l29.0097-29.0097v8.1533l-26.8314 26.8616c.7726 1.75 1.653 3.449 2.6363 5.09l24.2256-24.2259v8.1736l-20.8971 20.8973c1.1299 1.436 2.3433 2.804 3.6339 4.097l17.2632-17.263v8.173l-12.9322 12.932c1.4626 1.141 2.9922 2.193 4.5805 3.151l8.3517-8.352v12.311c1.7731.632 3.5833 1.153 5.4203 1.563z" fill="#fffac2"/><path d="m100.037 41.2319v89.6251c1.858-.49 3.684-1.095 5.466-1.812v-85.9961c-1.782-.7193-3.608-1.3262-5.466-1.817z" fill="#fc6719"/><path d="m89.0234 39.7202v92.6528c1.8285-.03 3.6537-.168 5.4661-.412v-91.8285c-1.8124-.2444-3.6376-.382-5.4661-.4123z" fill="#fc6719"/><path d="m78.123 40.8146v90.4644c1.7778.398 3.5775.69 5.3897.875v-92.2097c-1.8121.1837-3.6118.4743-5.3897.8703z" fill="#fdb98d"/><path d="m78.0762 40.8246v90.4444h.0458v-90.4545z" fill="#fdb98d"/></g></svg>

<svg width="178" height="178" viewBox="0 0 178 178" fill="none" xmlns="http://www.w3.org/2000/svg">
<circle cx="89" cy="89" r="89" fill="#3D113C"/>
<g clip-path="url(#clip0_2833_6669)">
<path d="M85.629 101.185L48.2676 138.541C48.7348 139.01 49.29 139.383 49.9013 139.636C50.5127 139.89 51.1682 140.021 51.8302 140.021C52.4922 140.021 53.1477 139.89 53.759 139.636C54.3704 139.383 54.9256 139.01 55.3928 138.541L89.1101 104.834V104.641L85.629 101.185Z" fill="#00BCB4"/>
<path d="M89.109 97.5473L30.2907 38.7391C29.8182 38.2666 29.1775 38.0012 28.5094 38.0012C27.8413 38.0012 27.2005 38.2666 26.7281 38.7391C26.2556 39.2115 25.9902 39.8522 25.9902 40.5204C25.9902 41.1885 26.2556 41.8292 26.7281 42.3016L85.6279 101.186L89.0836 97.7305L89.109 97.5473Z" fill="#00BCB4"/>
<path d="M151.633 42.2904C152.105 41.818 152.37 41.1772 152.37 40.5091C152.37 39.841 152.105 39.2003 151.633 38.7278C151.16 38.2554 150.519 37.99 149.851 37.99C149.183 37.99 148.543 38.2554 148.07 38.7278L89.1855 97.6276L92.7481 101.19L151.633 42.2904Z" fill="#016099"/>
<path d="M122.99 138.541C123.457 139.01 124.013 139.383 124.624 139.636C125.235 139.89 125.891 140.021 126.553 140.021C127.215 140.021 127.87 139.89 128.482 139.636C129.093 139.383 129.648 139.01 130.115 138.541V138.541L92.754 101.18L89.1914 104.743L122.99 138.541Z" fill="#016099"/>
<path d="M88.9922 39.7202V132.373H89.0176V39.7202H88.9922Z" fill="#FDB98D"/>
<path d="M64.2988 125.747C66.9431 127.343 69.7411 128.669 72.6506 129.706V117.395L64.2988 125.747Z" fill="#FDB98D"/>
<path d="M94.4902 40.1326V131.961H94.5462V40.1427L94.4902 40.1326Z" fill="#FDB98D"/>
<path d="M72.6545 61.9559V61.1365L60.4399 48.9219C58.8921 50.086 57.4184 51.3456 56.0273 52.6931L68.9799 65.6304L72.6545 61.9559Z" fill="#FDB98D"/>
<path d="M65.1121 69.4985L52.3326 56.719C51.0903 58.2297 49.9446 59.8174 48.9023 61.4725L61.0253 73.5853L65.1121 69.4985Z" fill="#FDB98D"/>
<path d="M72.6558 42.387C70.0422 43.3164 67.5178 44.4798 65.1133 45.863L72.6558 53.4055V42.387Z" fill="#FDB98D"/>
<path d="M57.1626 77.4483L46.1949 66.501C45.3022 68.4127 44.5421 70.3836 43.9199 72.3996L53.0809 81.5606L57.1626 77.4483Z" fill="#FDB98D"/>
<path d="M72.6561 69.6868L43.6465 98.6964C44.2292 100.746 44.9536 102.753 45.8146 104.702L72.6561 77.8604V69.6868Z" fill="#FDB98D"/>
<path d="M42.4609 78.6492C41.7323 83.171 41.674 87.7755 42.2879 92.3142L49.2146 85.3977L42.4609 78.6492Z" fill="#FDB98D"/>
<path d="M72.6553 85.5913L48.4297 109.817C49.4359 111.499 50.5476 113.115 51.7582 114.657L72.6553 93.7598V85.5913Z" fill="#FDB98D"/>
<path d="M72.6551 101.49L55.3867 118.754C56.7495 120.121 58.196 121.403 59.7178 122.591L72.65 109.659L72.6551 101.49Z" fill="#FDB98D"/>
<path d="M100.006 95.3374V130.867H100.036V95.3679L100.006 95.3374Z" fill="#FDB98D"/>
<path d="M133.766 77.5345C133.139 74.1608 132.137 70.8678 130.778 67.717L127.363 71.132L133.766 77.5345Z" fill="#FDB98D"/>
<path d="M119.412 79.082L133.932 93.6021C134.342 91.1054 134.548 88.5795 134.548 86.0494L123.494 75.0002L119.412 79.082Z" fill="#FDB98D"/>
<path d="M105.502 69.361L121.279 53.5838C119.927 52.2067 118.491 50.9149 116.979 49.7158L105.502 61.1874V69.361Z" fill="#FDB98D"/>
<path d="M105.502 85.2602L128.175 62.5869C127.18 60.8953 126.079 59.2685 124.877 57.7163L105.502 77.0866V85.2602Z" fill="#FDB98D"/>
<path d="M105.502 129.044C107.456 128.257 109.354 127.337 111.182 126.291L105.502 120.611V129.044Z" fill="#FDB98D"/>
<path d="M105.502 92.9657V96.9558L123.997 115.451C125.237 113.943 126.381 112.359 127.422 110.707L107.573 90.8586L105.502 92.9657Z" fill="#FDB98D"/>
<path d="M112.424 46.5348C110.218 45.1808 107.903 44.0146 105.502 43.0486V53.4564L112.424 46.5348Z" fill="#FDB98D"/>
<path d="M105.502 112.881L115.854 123.232C117.406 122.077 118.885 120.826 120.282 119.487L105.522 104.727L105.502 112.881Z" fill="#FDB98D"/>
<path d="M111.463 87.0368L130.166 105.74C131.064 103.834 131.829 101.868 132.457 99.857L115.545 82.95L111.463 87.0368Z" fill="#FDB98D"/>
<path d="M100.036 90.7265V41.2319H100.006V90.7621L100.036 90.7265Z" fill="#FDB98D"/>
<path d="M100.038 95.3678V90.7263L100.007 90.7568V41.2266C98.2086 40.7554 96.3832 40.3934 94.541 40.1426V131.951C96.3832 131.7 98.2086 131.338 100.007 130.866V95.3373L100.038 95.3678Z" fill="#FDB98D"/>
<path d="M105.502 61.1875L116.973 49.7058C115.522 48.5557 114.002 47.4935 112.424 46.5249L105.502 53.4465V61.1875Z" fill="#FC6719"/>
<path d="M105.503 77.0867L124.879 57.7113C123.759 56.2659 122.556 54.8877 121.275 53.5837L105.498 69.3609L105.503 77.0867Z" fill="#FC6719"/>
<path d="M119.411 79.0817L123.483 75.0102L134.532 86.0593C134.532 83.2048 134.27 80.3563 133.748 77.5498L127.361 71.132L130.776 67.717C130.017 65.9546 129.148 64.2412 128.175 62.5869L105.502 85.2603V92.9656L107.594 90.8739L127.442 110.723C128.457 109.116 129.371 107.449 130.181 105.73L111.462 87.0365L115.533 82.9649L132.44 99.872C133.077 97.8239 133.57 95.7339 133.916 93.6171L119.411 79.0817Z" fill="#FC6719"/>
<path d="M105.504 104.712L120.263 119.471C121.58 118.208 122.823 116.869 123.983 115.461L105.488 96.9658L105.504 104.712Z" fill="#FC6719"/>
<path d="M105.502 120.611L111.182 126.291C112.799 125.368 114.359 124.348 115.854 123.238L105.502 112.886V120.611Z" fill="#FC6719"/>
<path d="M88.21 39.71C86.6356 39.71 85.08 39.788 83.543 39.9441V132.154C85.0766 132.307 86.6322 132.385 88.21 132.388H88.9937V39.7201L88.21 39.71Z" fill="#FFFAC2"/>
<path d="M78.0759 40.8247C76.2389 41.2341 74.4287 41.7559 72.6556 42.3872V53.4057L65.1131 45.8632C63.5012 46.787 61.9461 47.8067 60.4563 48.9169L72.6709 61.1315V61.9509L68.9964 65.6254L56.0285 52.6932C54.7142 53.9596 53.4753 55.3022 52.3183 56.7139L65.1131 69.4985L61.0416 73.57L48.9033 61.4725C47.8981 63.0912 46.9938 64.7705 46.1958 66.5008L57.1635 77.4481L53.0919 81.5197L43.931 72.3587C43.2984 74.4121 42.8103 76.5073 42.4703 78.6289L49.2138 85.3978L42.2871 92.3143C42.5778 94.4772 43.0217 96.6168 43.6154 98.7168L72.6251 69.7071V77.8604L45.7937 104.722C46.5663 106.472 47.4467 108.171 48.43 109.812L72.6556 85.5861V93.7597L51.7585 114.657C52.8884 116.093 54.1018 117.461 55.3924 118.754L72.6556 101.491V109.664L59.7234 122.596C61.186 123.737 62.7156 124.789 64.3039 125.747L72.6556 117.395V129.706C74.4287 130.338 76.2389 130.859 78.0759 131.269V40.8247Z" fill="#FFFAC2"/>
<path d="M100.037 41.2319V130.857C101.895 130.367 103.721 129.762 105.503 129.045V43.0489C103.721 42.3296 101.895 41.7227 100.037 41.2319V41.2319Z" fill="#FC6719"/>
<path d="M89.0234 39.7202V132.373C90.8519 132.343 92.6771 132.205 94.4895 131.961V40.1325C92.6771 39.8881 90.8519 39.7505 89.0234 39.7202V39.7202Z" fill="#FC6719"/>
<path d="M78.123 40.8146V131.279C79.9008 131.677 81.7005 131.969 83.5127 132.154V39.9443C81.7006 40.128 79.9009 40.4186 78.123 40.8146V40.8146Z" fill="#FDB98D"/>
<path d="M78.0762 40.8246V131.269H78.122V40.8145L78.0762 40.8246Z" fill="#FDB98D"/>
</g>
<defs>
<clipPath id="clip0_2833_6669">
<rect width="126.365" height="102.017" fill="white" transform="translate(26 38)"/>
</clipPath>
</defs>
</svg>
